X: 357
T: Bir Dilber-i Nâdîde
C: Dede Efendi
O: Turkey
F: http://compmusic.upf.edu/node/140
N: ferahfeza--agirsemai--senginsemai--bir_dilber-i--dede_efendi
N: makam= ferahfeza
N: form= agirsemai
N: usul= senginsemai = 6/4
M: 6/4
L: 1/16
K: C _B   
Q: 1/4=63
%%MIDI tuningsystem comma53
c4 f3e f3e gf{g}fe f8  | f2e2 d2c2 d2e2 f2e2 f2e2 f2e2  | 
w:  Bir  dil *  ber_ *  i  *  *  *  *  nâ  |  dî *  *  *  de   | 
f2g2 a2ga g2fg f2ef e2de d2c2  | z2df e2d2 c4 d2e2 f6z2  | 
w:  bir  *  ka *  *  met_ *  *  i  *  *  müs  |  tes *  *  *  nâ  me det_ ey    | 
c4 f3e f3e gf{g}fe f8  | f2e2 d2c2 d2e2 f2e2 f2e2 f2e2  | 
w:  Bir  dil *  ber_ *  i  *  *  *  *  nâ  |  dî *  *  *  de   | 
f2g2 a2ga g2fg f2ef e2de d2c2  | z2df e2d2 c2=B2 e2dc c6z2  | 
w:  bir  *  ka *  *  met_ *  *  i  *  *  müs  |  tes *  *  *  nâ    | 
d3e f4 f3e e3d {g}f3/2e/de d2c_1/4B  | \
w:  An *  ka  yı  *  dil  *  *  ü   | 
c2_1/4B2 c2de {e}d2cB BA{c}BA A8  | 
w:  câ *  *  *  *  *  nı   | 
A3c c3B B3A A3G AGFE D4  | E2FE ED{E}D^C D4 d2e2 f6z2  | 
w:  sayd_ *  ey *  le *  di  *  bî   |  per *  *  *  *  *  *  *  vâ   SAZ  | 
c4 f4 f4 e2{a}gf f6z2  | a2ga g2fg f2ef e2de d2c_1/4B {g}f2ed  | 
w:  Câ nım  yel  lel  *  *  *  lel   |  le  *  *  le  *  *  le  *  *  le  *  *  lâ   | 
c2d6 g2fe edde d2c_1/4B A4  | g2fg f2ef e2de d2cd c_1/4BAB c4  | 
w:  li  *  *  *  *  me det_ *  *  ey    |  Mî *  *  rim  *  *  te  *  *  re  *  *  lel   | 
a2ga g2fg f2ef e2de {f}edc_1/4B A2Bd  | \
w:  le  *  *  le  *  *  le  *  *  le  *  *  *  lel   | 
c3_1/4B (3_7/8e2d2^f2 (3e2d2e2 dc2B B2A6  | 
w:  *  *  le  *  *  le  *  *  le  *  *  lâ   | 
A2c4BA A3G GF{G}FG A6z2  | A3c c3B B3A A3G AGFE D4  | 
w:  li   *  *  *  *  *  Gü *  *  lüm  *  ey   |  sayd_ *  ey *  le *  di  *  bî   | 
E2{G}FE ED{E}D^C D4 f2g2 a8  | g4 a4 a4 a4 c'3b a4  | \
w:  per *  *  *  *  *  *  *  *  vâ   SAZ  |  Gel  kan de sin  ey   | 
b3a g2c'2 b3a a3g g2{b}ag f4  | 
w:  meh  *  *  *  rû   | 
g2c'2 c'2bc' b2ab a2ga a2g2 f2a2  | \
w:  fer *  yâ *  *  dım  *  *  i *  *  şit   | 
g3f e2{a}gf f4 g2a2 c'3b a4  | 
w:  yâ  *  *  *  *  *  hû  me det_ ey    | 
g4 a4 a4 a4 c'3b a4  | a3g f2a2 a3g g3f f3e e3_3/4d  | \
w:  Gel  kan de sin  ey   |  meh  *  *  *  rû   | 
c2a2 a2ga g2fg f2ef e2_3/4d2 c2de  | 
w:  fer *  yâ *  *  dım  *  *  i *  *  şit   | 
_3/4d2c2 _1/4B2{e}dc c4 e2f2 g8  | \
w:  yâ  *  *  *  *  *  hû   SAZ  | 
g4 g4 g4 g2f2 _7/8a3g f2e_3/4d  | \
w:  Göz ya şı  i *  le   | 
c2_3/4d2 c2e2 d3c c3_1/4B c3B A4  | 
w:  her  *  *  *  sû   | 
A3c c3B B3A A3G AGFE D4  | E2{G}FE EDD^C D4 d2e2 f8  | 
w:  ol *  du  *  yi *  ne  *  bir   |  der *  *  *  *  *  *  *  yâ   SAZ  | 
c4 f4 f4 e2{a}gf f6z2  | a2ga g2fg f2ef e2de d2c_1/4B {g}f2ed  | 
w:  Câ nım  yel  lel  *  *  *  lel   |  le  *  *  le  *  *  le  *  *  le  *  *  lâ   | 
c2d6 g2fe edde d2c_1/4B A4  | g2fg f2ef e2de d2cd c_1/4BAB c4  | 
w:  li  *  *  *  *  me det_ *  *  ey    |  Mî *  *  rim  *  *  te  *  *  re  *  *  lel   | 
a2ga g2fg f2ef e2de {f}edc_1/4B A2Bd  | \
w:  le  *  *  le  *  *  le  *  *  le  *  *  *  lel   | 
c3_1/4B (3_7/8e2d2^f2 (3e2d2e2 dc2B B2A6  | 
w:  *  *  le  *  *  le  *  *  le  *  *  lâ   | 
A2c4BA A3G GF{G}FG A6z2  | A3c c3B B3A A3G AGFE D4  | 
w:  li   *  *  *  *  *  Gü *  *  lüm  *  ey   |  sayd_ *  ey *  le *  di  *  bî   | 
E2{G}FE ED{E}D^C D4 |
w:  per *  *  *  *  *  *  *  *  vâ    | 


